X:1
T:Title
%%score { 1 | ( 2 3 ) }
L:1/8
M:4/4
K:G
V:1 treble nm="Grand Piano"
V:2 bass 
V:3 bass 
V:1
 z4 z2[Q:1/4=116] D2 | [DG]2 z2 [DFA]2 z2 | [DGB]4 z2 D2 | [DG]2 [DFA]2 [DGB]2 [DFc]2 | %4
 [DGd]4 [DGB]2 z2 | [DFA]2 z2 [DFd]2 z2 |[M:3/4] [DGB]4 z2 |[M:1/4] D2 | %8
[M:4/4] [DG]2 z2 [DFA]2 z2 | [DGB]4 z2 D2 | [DG]2 [DFA]2 [DGB]2 [DFc]2 | [DGd]4 [DGB]2 z2 | %12
 [DFA]2 z2 [DFd]2 z2 |[M:3/4] [DGB]4 z2 |[M:1/4] G2 |[M:4/4] c2 c2 c2 c2 | c2 B_B =B2 B2 | %17
 B2 A2 A2 B2 | A2 G2 G2 G2 | c2 c2 c2 c2 | c2 B_B [D=B]2 [B,DG]2 | [DFA]2 z2 [DFd]2 z2 | %22
[M:3/4] [B,G]4 z2 |] %23
V:2
 z4 z2 D,2 | B,,2 z2 D,2 z2 | G,4 z2 D,2 | B,,2 D,2 G,2 A,2 | B,4 G,2 z2 | D,2 z2 D,2 z2 | %6
[M:3/4] G,4 z2 |[M:1/4] D,2 |[M:4/4] B,,2 z2 D,2 z2 | G,4 z2 D,2 | B,,2 D,2 G,2 A,2 | B,4 G,2 z2 | %12
 D,2 z2 D,2 z2 |[M:3/4] G,4 z2 |[M:1/4] G,2 |[M:4/4] [G,E]2 [G,E]2 [G,E]2 [G,E]2 | %16
 [G,E]2 D^C [G,D]2 [G,D]2 | [D,F,D]2 [D,F,C]2 [D,F,C]2 [D,F,D]2 | [G,C]2 [G,B,]2 [G,B,]2 [G,B,]2 | %19
 [G,E]2 [G,E]2 [G,E]2 [G,E]2 | [G,E]2 D^C G,2 G,2 | D,2 z2 D,2 z2 |[M:3/4] G,,4 z2 |] %23
V:3
 x8 | x8 | x8 | x8 | x8 | x8 |[M:3/4] x6 |[M:1/4] x2 |[M:4/4] x8 | x8 | x8 | x8 | x8 |[M:3/4] x6 | %14
[M:1/4] x2 |[M:4/4] x8 | z2 G,2 z4 | x8 | x8 | x8 | z2 G,2 z4 | x8 |[M:3/4] x6 |] %23

